!!!SOCIAL_FUNCTION:	cochiti
!!!PDT:	1957
!!!OTL: No_66_Hunting_Song.krn
!!!LING_GROUP: Keresan
!!!LANG: Tone
!!!REG: Southwest
**kern
*staff1
=1-
*clefF4
*k[b-e-a-]
*M2/4
8.c\L
16A-\Jk
8.c\L
16A-\Jk
=2
8.G\L
16G\Jk
4A-\
=3
16c\LL
16A-\
16A-\
16G\JJ
8.A-\L
16G\Jk
=4
8.F\L
16F\Jk
8G\
8r
=5
16c\LL
16G\
16G\
16G\JJ
8.A-\L
16G\Jk
=6
8.F\L
16F\Jk
4G\
=7
*M3/4
16A-\LL
16G\
16G\JJ
16r
8G\L
16c\L
16A-\JJ
8G\
8r
=8
*M2/4
16A-\LL
16G\
16G\JJ
16r
8G\L
16c\L
16A-\JJ
=9
*M3/4
2G\
8G\
8r
=10
*M2/4
8.c\L
16A-\Jk
8.c\L
16A-\Jk
=11
8G\L
16G\L
16G\JJ
8A-\
8r
=12
16c\LL
16A-\
16A-\
16G\JJ
8.A-\L
16G\Jk
=13
8F\L
16F\L
16F\JJ
8G\
8r
=14
16c\LL
16G\
16A-\
16G\JJ
8A-\L
16A-\L
16G\JJ
=15
8.F\L
16F\Jk
8G\
8r
=16
16c\LL
16G\
16A-\
16G\JJ
8A-\L
16A-\L
16G\JJ
=17
8F\L
8F\J
8G\
8r
=18!|:
8.c\L
16A-\Jk
8c\L
16c\L
16A-\JJ
=19
8.G\L
16G\Jk
4A-\
=20
16c\LL
16A-\
16A-\
16G\JJ
8A-\L
8G\J
=21
8.F\L
16F\Jk
8G\
8r
=22
16c\LL
16G\
16A-\
16G\JJ
8A-\L
16A-\L
16G\JJ
=23
8.F\L
16F\Jk
8G\
8r
=24
16c\LL
16G\
16A-\
16G\JJ
8A-\L
16A-\L
16G\JJ
=25
8.F\L
16F\Jk
8G\
8r
=26
*M3/4
8.G\L
16G\Jk
8G\L
16c\L
16A-\JJ
8G\
8r
=27
*M2/4
8.G\L
16G\Jk
8G\L
16c\L
16A-\JJ
=28
*M3/4
2G\
8G\
8r
==:|!
*-
